X:1
T:Title
%%score { ( 1 4 ) | ( 2 3 ) }
L:1/8
M:6/8
K:A
V:1 treble nm="Grand Piano"
V:4 treble 
V:2 bass 
V:3 bass 
V:1
 z3 z2[Q:1/4=90] [CE] | [Ec]2 [Fd] [Ec]2 [DB] | [CA]2 [DF] [CE]2 [CE] | GFE GFE | %4
[M:5/8] [CA]2 [DF] [CE]2 |[M:1/8] [CE] |[M:3/4] [Ec]2 [Fd] [Ec]2 [DB] | [CA]2 [DF] [CE]2 [CA] | %8
 [A,^DF]2 [A,DF][A,F] G[CDA] |[M:5/8] [B,^DG]2 [A,DF] [G,E]2 |[M:1/8] [G,DE] |[M:3/4] [Gd]2 GG FE | %12
 [Ec]2 [CE] [CA]2 [DE] | [Gd]2 GG FE |[M:5/8] [Ec]2 [CE] [CA]2 |[M:1/8] [CE] | %16
[M:3/4] [DF]2 [DF][FA] G[A,DF] | [A,CE]2 [A,CE] [A,CA]2[K:bass] [A,C] | [E,A,CE]3 [E,G,B,D]3 | %19
[M:5/8] [A,C]-[A,C]- [A,C]3 |] %20
V:2
 z3 z2 [E,A,] | [A,,A,]2 [A,,A,] [A,,A,]2 [A,,A,] | [A,,A,]2 [A,,A,] [A,,A,]2 [A,,A,] | .B,3 .B,3 | %4
[M:5/8] [A,,A,]2 [A,,A,] [A,,A,]2 |[M:1/8] [A,,A,] |[M:3/4] [A,,A,]2 [A,,A,] [A,,A,]2 [A,,A,] | %7
 [A,,A,]2 [A,,A,] [A,,A,]2 [A,,A,] | B,,2 .B,,2 B,B,, |[M:5/8] B,,2 B,, E,2 |[M:1/8] E, | %11
[M:3/4] [E,B,]2 [E,B,D]B, A,[E,G,D] | [A,,A,]2 [A,,A,] [A,,A,]2 [E,G,] | %13
 [E,B,]2 [E,B,D]B, A,[E,G,D] |[M:5/8] [A,,A,]2 [A,,A,] [A,,A,]2 |[M:1/8] [A,,A,] | %16
[M:3/4] [D,A,]2 .[D,A,]2 ED, | A,,2 A,, A,,2 E, | E,,3 E,, F,,G,, |[M:5/8] A,,-A,,- A,,3 |] %20
V:3
 x6 | x6 | x6 | [E,D]-[E,A,D][E,G,D] [E,D]-[E,A,D][E,G,D] |[M:5/8] x5 |[M:1/8] x |[M:3/4] x6 | x6 | %8
 z2 z .B,,3 |[M:5/8] x5 |[M:1/8] x |[M:3/4] z2 z .[E,D]3 | x6 | z2 z .[E,D]3 |[M:5/8] x5 | %15
[M:1/8] x |[M:3/4] z2 z .[D,A,]3 | x6 | x6 |[M:5/8] x5 |] %20
V:4
 x6 | x6 | x6 | x6 |[M:5/8] x5 |[M:1/8] x |[M:3/4] x6 | x6 | z2 z .^D3 |[M:5/8] x5 |[M:1/8] x | %11
[M:3/4] x6 | x6 | x6 |[M:5/8] x5 |[M:1/8] x |[M:3/4] x6 | x5[K:bass] x | x6 |[M:5/8] x5 |] %20

